dist/svg/opera.svg

<svg width="16" height="16" viewBox="0 0 16 16" fill="rgb(34, 34, 34)" xmlns="http://www.w3.org/2000/svg"><title>opera</title><path d="M10.125 1.05502C4.635 1.05502 1.977 8.27402 5.367 12.51C6.472 13.962 8.184 14.902 10.118 14.949H10.125C11.321 14.946 12.431 14.58 13.352 13.955L13.332 13.968C11.927 15.229 10.06 16 8.013 16C8.008 16 8.004 16 7.999 16C7.873 16 7.742 16 7.616 15.99C3.366 15.78 0 12.283 0 7.99902C0 3.58102 3.582 -0.000976562 8 -0.000976562H8.026C10.068 0.00602344 11.928 0.777023 13.337 2.04102L13.329 2.03402C12.431 1.42102 11.321 1.05402 10.126 1.05302L10.125 1.05502ZM13.409 13.884C12.843 14.238 12.155 14.447 11.418 14.447C10.564 14.447 9.776 14.165 9.141 13.69L9.151 13.697C10.964 13.036 12.303 10.742 12.303 8.00002C12.303 5.26802 10.974 2.97402 9.161 2.30302C9.786 1.84002 10.572 1.56102 11.423 1.56102C12.173 1.56102 12.873 1.77702 13.463 2.15102L13.447 2.14202C15.019 3.60502 15.999 5.68502 15.999 7.99502C15.999 10.323 15.003 12.419 13.414 13.879L13.408 13.884H13.409Z" fill="rgb(34, 34, 34)" fill-opacity="1.00"/></svg>

<!-- Generated by Trend Micro Style Portal -->
<svg version="1.1" xmlns="http://www.w3.org/2000/svg" width="16" height="16" viewBox="0 0 16 16">
  <title>opera</title>
  <path fill="rgb(34,34,34)" d="M10.125 1.055c-5.49 0-8.148 7.219-4.758 11.455 1.105 1.452 2.817 2.392 4.751 2.439l0.007 0c1.196-0.003 2.306-0.369 3.227-0.994l-0.020 0.013c-1.405 1.261-3.272 2.032-5.319 2.032-0.005 0-0.009 0-0.014-0h0.001c-0.126 0-0.258 0-0.384-0.010-4.25-0.21-7.616-3.707-7.616-7.991 0-4.418 3.582-8 8-8 0 0 0 0 0 0h0.026c2.042 0.007 3.902 0.778 5.311 2.042l-0.008-0.007c-0.898-0.613-2.008-0.98-3.203-0.981h-0zM13.409 13.884c-0.566 0.354-1.254 0.563-1.991 0.563-0.854 0-1.642-0.282-2.277-0.757l0.010 0.007c1.813-0.661 3.152-2.955 3.152-5.697 0-2.732-1.329-5.026-3.142-5.697 0.625-0.463 1.411-0.742 2.262-0.742 0.75 0 1.45 0.216 2.040 0.59l-0.016-0.009c1.572 1.463 2.552 3.543 2.552 5.853 0 2.328-0.996 4.424-2.585 5.884l-0.006 0.005z"></path>
</svg>
